X: 06013
T: COREY'S REEL
C: Bob McQuillen 2 Feb 82
B: Bob's Note Book 6 #13
%R: reel
Z: 2021 John Chambers <jc:trillian.mit.edu>
M: C
L: 1/8
K: D
fe \
| d2dA dAFA | GBAG FAdA | eAfA gfed | cedB Agfe |\
| d2dA dAFA | GBAG FAdA | eAfa gecd | e2d2 d2 :|
|: fg \
| a2ag fdfa | gagf e2fg | ageg fdgf | efec A2AG |\
| FAdA dAFD | GBdB dBGB | ABcd efga | f2d2 d2 :|
%%begintext align
%% April Limber's
%% dog, Corey Limber, sat up and begged so
%% pretty that I wrote her this tune. She
%% wagged her tail in time to the music.
%%endtext

%%sep 1 1 500

%%sep 1 1 500

